img/top.svg

<svg width="80" height="82" viewBox="0 0 80 82" fill="none" xmlns="http://www.w3.org/2000/svg">
<g filter="url(#filter0_d_469_2066)">
<path d="M41.1666 31.1667C40.8333 30.8334 40.4444 30.6667 40 30.6667C39.5555 30.6667 39.1666 30.8334 38.8333 31.1667L29.5 40.5C28.9444 41.0556 28.8055 41.6667 29.0833 42.3334C29.3611 43 29.8889 43.3334 30.6666 43.3334L49.3333 43.3334C50.1111 43.3334 50.6389 43 50.9166 42.3334C51.1944 41.6667 51.0555 41.0556 50.5 40.5L41.1666 31.1667ZM40 6.66671C44.6111 6.66672 48.9444 7.54227 53 9.29338C57.0555 11.0445 60.5833 13.4189 63.5833 16.4167C66.5833 19.4145 68.9578 22.9423 70.7066 27C72.4555 31.0578 73.3311 35.3912 73.3333 40C73.3355 44.6089 72.46 48.9423 70.7066 53C68.9533 57.0578 66.5789 60.5856 63.5833 63.5834C60.5878 66.5812 57.06 68.9556 53 70.7067C48.94 72.4578 44.6066 73.3334 40 73.3334C35.3933 73.3334 31.06 72.4578 27 70.7067C22.94 68.9556 19.4122 66.5811 16.4166 63.5834C13.4211 60.5856 11.0455 57.0578 9.28997 53C7.53442 48.9423 6.65997 44.6089 6.66664 40C6.6733 35.3912 7.54886 31.0578 9.2933 27C11.0377 22.9423 13.4122 19.4145 16.4166 16.4167C19.4211 13.4189 22.9489 11.0434 27 9.29004C31.0511 7.53671 35.3844 6.66227 40 6.66671Z" fill="white"/>
<path d="M40.0003 72.8334C35.4588 72.8334 31.1924 71.9704 27.1976 70.2474C23.1933 68.5203 19.7186 66.1808 16.7698 63.2299C13.8208 60.2786 11.4809 56.8035 9.74933 52.8011C8.13008 49.0584 7.27064 45.0759 7.17511 40.849L7.16632 40.0004C7.17295 35.4564 8.03582 31.1904 9.75226 27.1976C11.4726 23.1959 13.8123 19.7219 16.7698 16.7709C19.728 13.8193 23.2028 11.4788 27.1986 9.74939C31.1839 8.02451 35.4491 7.16202 39.9993 7.16638L40.0003 7.16638C44.5462 7.16642 48.8119 8.02945 52.8021 9.75232C56.8021 11.4795 60.2763 13.8196 63.2298 16.7709C66.183 19.7219 68.5225 23.1957 70.2474 27.1976C71.9682 31.1903 72.8311 35.4565 72.8333 40.0004C72.8355 44.5439 71.9725 48.8097 70.2474 52.8021C68.518 56.8043 66.1787 60.2787 63.2298 63.2299C60.2809 66.1809 56.8065 68.5203 52.8021 70.2474C48.8073 71.9704 44.5417 72.8333 40.0003 72.8334ZM49.3333 43.8334C49.7935 43.8334 50.2181 43.7344 50.5794 43.5062C50.9434 43.2763 51.2062 42.9387 51.3782 42.5258C51.5508 42.1117 51.604 41.6858 51.5081 41.264C51.4131 40.8461 51.1812 40.4743 50.8538 40.1468L41.5198 30.8129C41.0992 30.3924 40.5857 30.1665 40.0003 30.1664C39.4147 30.1664 38.9006 30.3922 38.4798 30.8129L29.1468 40.1468C28.8192 40.4744 28.5866 40.8459 28.4915 41.264C28.3957 41.6857 28.4489 42.1117 28.6214 42.5258C28.7934 42.9386 29.0563 43.2763 29.4202 43.5062C29.7815 43.7344 30.2062 43.8333 30.6663 43.8334L49.3333 43.8334Z" stroke="#C81528"/>
</g>
<defs>
<filter id="filter0_d_469_2066" x="2.66663" y="6.66675" width="74.6667" height="74.6666" filterUnits="userSpaceOnUse" color-interpolation-filters="sRGB">
<feFlood flood-opacity="0" result="BackgroundImageFix"/>
<feColorMatrix in="SourceAlpha" type="matrix" values="0 0 0 0 0 0 0 0 0 0 0 0 0 0 0 0 0 0 127 0" result="hardAlpha"/>
<feOffset dy="4"/>
<feGaussianBlur stdDeviation="2"/>
<feComposite in2="hardAlpha" operator="out"/>
<feColorMatrix type="matrix" values="0 0 0 0 0 0 0 0 0 0 0 0 0 0 0 0 0 0 0.1 0"/>
<feBlend mode="normal" in2="BackgroundImageFix" result="effect1_dropShadow_469_2066"/>
<feBlend mode="normal" in="SourceGraphic" in2="effect1_dropShadow_469_2066" result="shape"/>
</filter>
</defs>
</svg>

<?xml version="1.0" encoding="UTF-8"?>
<svg id="_圖層_1" data-name="圖層_1" xmlns="http://www.w3.org/2000/svg" version="1.1" xmlns:xlink="http://www.w3.org/1999/xlink" viewBox="0 0 80 82">
  <!-- Generator: Adobe Illustrator 30.0.0, SVG Export Plug-In . SVG Version: 2.1.1 Build 123)  -->
  <defs>
    <style>
      .st0 {
        fill: #fff;
      }

      .st1 {
        filter: url(#drop-shadow-1);
      }

      .st2 {
        fill: none;
        stroke: #c81528;
      }
    </style>
    <filter id="drop-shadow-1" x="0" y="2" width="80" height="80" filterUnits="userSpaceOnUse">
      <feOffset dx="0" dy="2"/>
      <feGaussianBlur result="blur" stdDeviation="2"/>
      <feFlood flood-color="#000" flood-opacity=".3"/>
      <feComposite in2="blur" operator="in"/>
      <feComposite in="SourceGraphic"/>
    </filter>
  </defs>
  <g class="st1">
    <path class="st0" d="M41.17,31.17c-.33-.33-.72-.5-1.17-.5s-.83.17-1.17.5l-9.33,9.33c-.56.56-.69,1.17-.42,1.83.28.67.81,1,1.58,1h18.67c.78,0,1.31-.33,1.58-1,.28-.67.14-1.28-.42-1.83l-9.33-9.33ZM40,6.67c4.61,0,8.94.88,13,2.63,4.06,1.75,7.58,4.13,10.58,7.12,3,3,5.37,6.53,7.12,10.58,1.75,4.06,2.62,8.39,2.63,13,0,4.61-.87,8.94-2.63,13-1.75,4.06-4.13,7.59-7.12,10.58-3,3-6.52,5.37-10.58,7.12-4.06,1.75-8.39,2.63-13,2.63s-8.94-.88-13-2.63c-4.06-1.75-7.59-4.13-10.58-7.12-3-3-5.37-6.53-7.13-10.58-1.76-4.06-2.63-8.39-2.62-13,0-4.61.88-8.94,2.63-13,1.74-4.06,4.12-7.59,7.12-10.58,3-3,6.53-5.37,10.58-7.13,4.05-1.75,8.38-2.63,13-2.62Z"/>
    <path class="st2" d="M40,72.83c-4.54,0-8.81-.86-12.8-2.59-4-1.73-7.48-4.07-10.43-7.02-2.95-2.95-5.29-6.43-7.02-10.43-1.62-3.74-2.48-7.73-2.57-11.95v-.85c0-4.54.86-8.81,2.58-12.8,1.72-4,4.06-7.48,7.02-10.43,2.96-2.95,6.43-5.29,10.43-7.02,3.99-1.72,8.25-2.59,12.8-2.58h0c4.55,0,8.81.86,12.8,2.59,4,1.73,7.47,4.07,10.43,7.02,2.95,2.95,5.29,6.42,7.02,10.43,1.72,3.99,2.58,8.26,2.59,12.8,0,4.54-.86,8.81-2.59,12.8-1.73,4-4.07,7.48-7.02,10.43-2.95,2.95-6.42,5.29-10.43,7.02-3.99,1.72-8.26,2.59-12.8,2.59ZM49.33,43.83c.46,0,.88-.1,1.25-.33.36-.23.63-.57.8-.98.17-.41.23-.84.13-1.26-.09-.42-.33-.79-.65-1.12l-9.33-9.33c-.42-.42-.93-.65-1.52-.65-.59,0-1.1.23-1.52.65l-9.33,9.33c-.33.33-.56.7-.66,1.12-.1.42-.04.85.13,1.26.17.41.43.75.8.98.36.23.79.33,1.25.33h18.67Z"/>
  </g>
</svg>
